!!!OTL: 720. Liebeszweifel und Trost.
!!!ARE: Europa, Mitteleuropa, Deutschland, Schlesien
!!!SCT: E0720
!!!TXL: @@DE
!!!YEM: Copyright 1995, estate of Helmut Schaffrath.
**kern	**text
*ICvox	*
*M3/4	*
*k[f#]	*
*G:	*
!LO:TX:a:t=Volkslied.	!
{8g	Sie:_Schwar-
8d	-ʒes
=1	=1
4g	Band,
4b/	du
8a	mußt
8g	ver-
=2	=2
4a	-ge-
4cc}	-hen,
{8b	a-
8a	-ber
=3	=3
4b	mei-
4dd	-ne
8cc	Lie-
8b	-be
=4	=4
4a	nicht;
4r}	.
{8dd	mei-
8cc	-ne
=5	=5
8b	Lie-
8cc	-be
8dd	blei-
8dd	-bet
16eeL	im-
16ddJ	.
16ccL	-mer
16bJ	.
=6	=6
4a	ſte-
4cc}	-hen,
{8b/	ſchwar-
8a	-ʒes
=7	=7
4g	Band,
4b/	mußt
8.a	wei-
16g	-ter
=8	=8
4g	gehn.
4r}	.
==	==
!!!AGN: Liebes . Lied, Klage, Trost
!!!ONB: ESAC (Essen Associative Code) Database: ERK2
!!!AMT: simple triple
!!!AIN: vox
!!!EED: Helmut Schaffrath
!!!EEV: 1.0
!!!GTL: Liebeslieder [Neuere (aus dem 18. bis 19. Jahrh.) - Liebesleid] 678-740
!!!URL-scan: https://rosdok.uni-rostock.de/mcrviewer/recordIdentifier/rosdok_ppn745177662/iview2/phys_0526.iview2?x=193.8995864193107&y=1529.5137057078537&scale=0.7029437510502773&rotation=0&layout=singlePageLayout
!!!ENC: Anna Maria Matuszewska
!!!EEV: 2024/12/16
*-	*-
